pages/Absolute/img/logo.svg

<svg width="279" height="72" viewBox="0 0 279 72" fill="none" xmlns="http://www.w3.org/2000/svg">
<g clip-path="url(#clip0)">
<path d="M106.605 39.0678H97.7066L96.7044 47.6488H91.6938L96.8197 2.86328H107.447L112.633 47.6488H107.577L106.605 39.0678ZM106.104 34.5529L102.978 7.83224H101.289L98.2427 34.5479L106.104 34.5529Z" fill="#377553"/>
<path d="M130 17.0617C131.095 17.0338 132.184 17.2203 133.207 17.6105C134.028 17.9342 134.762 18.4471 135.346 19.1072C135.896 19.7476 136.306 20.4952 136.549 21.3023C136.811 22.1711 136.941 23.0742 136.934 23.9814V40.7441C136.962 41.834 136.775 42.9188 136.383 43.937C136.058 44.7551 135.543 45.4851 134.88 46.0673C134.237 46.6137 133.486 47.0198 132.675 47.2596C131.803 47.5231 130.896 47.6543 129.985 47.6488H120.214V2.86328H135.637V7.85219H125.205V17.0617H130ZM131.944 23.9464C131.954 23.4608 131.806 22.985 131.523 22.5894C131.337 22.381 131.103 22.2198 130.842 22.1191C130.58 22.0185 130.299 21.9813 130.02 22.0107H125.225V42.6798H130.02C130.518 42.6991 131.009 42.5516 131.413 42.2607C131.614 42.0699 131.768 41.8357 131.863 41.5762C131.959 41.3167 131.993 41.0389 131.964 40.7641L131.944 23.9464Z" fill="#377553"/>
<path d="M157.739 28.4813H162.749V41.1332C162.756 42.0404 162.626 42.9434 162.363 43.8122C162.122 44.6189 161.714 45.3666 161.166 46.0073C160.581 46.6676 159.848 47.1805 159.026 47.504C158.004 47.8937 156.914 48.0801 155.819 48.0528H152.062C150.967 48.0801 149.877 47.8937 148.855 47.504C148.032 47.1811 147.299 46.6681 146.715 46.0073C146.166 45.3671 145.758 44.6193 145.518 43.8122C145.254 42.9437 145.122 42.0406 145.127 41.1332V9.38371C145.122 8.47626 145.254 7.5732 145.518 6.70466C145.748 5.89261 146.148 5.13791 146.69 4.48958C147.274 3.82906 148.008 3.3161 148.83 2.99291C149.852 2.60282 150.942 2.41637 152.036 2.44413H155.794C156.889 2.41624 157.979 2.6027 159.001 2.99291C159.823 3.31677 160.556 3.82963 161.141 4.48958C161.689 5.13032 162.097 5.87798 162.338 6.68471C162.601 7.5535 162.731 8.45656 162.724 9.36375V18.0295H157.713V9.38371C157.723 8.89347 157.563 8.41481 157.263 8.02672C157.076 7.81893 156.842 7.65816 156.581 7.55757C156.319 7.45698 156.038 7.41944 155.759 7.44801H152.001C151.723 7.41903 151.441 7.45638 151.18 7.557C150.918 7.65761 150.685 7.81861 150.498 8.02672C150.195 8.41376 150.034 8.89275 150.042 9.38371V41.1332C150.033 41.6242 150.194 42.1033 150.498 42.4901C150.684 42.6992 150.918 42.8611 151.179 42.9626C151.44 43.0641 151.722 43.1022 152.001 43.0738H155.759C156.038 43.1018 156.32 43.0635 156.581 42.962C156.843 42.8605 157.076 42.6988 157.263 42.4901C157.564 42.1022 157.723 41.6234 157.713 41.1332L157.739 28.4813Z" fill="#377553"/>
<path d="M181.719 2.4943C182.814 2.46654 183.904 2.653 184.926 3.04308C185.748 3.36678 186.481 3.87966 187.066 4.53976C187.615 5.17999 188.023 5.92781 188.263 6.73488C188.528 7.6032 188.66 8.50641 188.654 9.41392V41.1334C188.66 42.041 188.528 42.9442 188.263 43.8125C188.023 44.6196 187.615 45.3674 187.066 46.0076C186.481 46.668 185.748 47.1809 184.926 47.5043C183.903 47.894 182.814 48.0804 181.719 48.0531H177.876C176.782 48.0804 175.692 47.894 174.669 47.5043C173.847 47.1814 173.114 46.6684 172.53 46.0076C171.981 45.3674 171.573 44.6196 171.332 43.8125C171.068 42.944 170.936 42.0409 170.942 41.1334V9.38399C170.937 8.47654 171.068 7.57348 171.332 6.70494C171.576 5.88914 171.991 5.13416 172.55 4.48987C173.134 3.82935 173.867 3.31638 174.689 2.99319C175.709 2.62267 176.792 2.45322 177.876 2.4943H181.719ZM181.719 43.0841C181.998 43.1121 182.28 43.0737 182.541 42.9723C182.803 42.8708 183.036 42.7091 183.223 42.5004C183.524 42.1125 183.683 41.6337 183.673 41.1434V9.38399C183.683 8.89376 183.523 8.41509 183.223 8.02701C183.035 7.81953 182.802 7.65898 182.541 7.55842C182.279 7.45786 181.998 7.42012 181.719 7.44829H177.876C177.597 7.41848 177.316 7.45546 177.054 7.55612C176.793 7.65679 176.559 7.81824 176.373 8.02701C176.089 8.42223 175.942 8.89828 175.952 9.38399V41.1334C175.941 41.6192 176.089 42.0954 176.373 42.4904C176.558 42.7004 176.792 42.863 177.053 42.9646C177.315 43.0662 177.597 43.1037 177.876 43.0741L181.719 43.0841Z" fill="#377553"/>
<path d="M214.709 2.86328V47.6488H209.699V7.83224H204.016L202.513 41.4525C202.426 43.5179 201.984 45.0662 201.185 46.0972C200.387 47.1282 198.951 47.6438 196.876 47.6438H194.151V42.6549H196.225C196.575 42.6995 196.93 42.62 197.227 42.4304C197.426 42.1362 197.528 41.7872 197.518 41.4326L199.221 2.86328H214.709Z" fill="#377553"/>
<path d="M244.201 2.49362C245.296 2.46586 246.386 2.65231 247.408 3.0424C248.218 3.35446 248.943 3.84977 249.528 4.48918C250.077 5.12942 250.485 5.87724 250.725 6.68431C250.99 7.55263 251.122 8.45584 251.116 9.36335V41.1327C251.122 42.0403 250.99 42.9435 250.725 43.8118C250.485 44.6189 250.077 45.3667 249.528 46.0069C248.943 46.6673 248.21 47.1802 247.388 47.5036C246.365 47.8933 245.276 48.0797 244.181 48.0524H241.07C239.975 48.08 238.886 47.8936 237.863 47.5036C237.041 47.1807 236.307 46.6677 235.723 46.0069C235.174 45.3665 234.764 44.6189 234.521 43.8118C234.258 42.943 234.128 42.0399 234.135 41.1327V22.0951H228.774V47.6483H223.763V2.8628H228.774V17.1261H234.155V9.38331C234.149 8.47611 234.279 7.57305 234.541 6.70426C234.784 5.89718 235.194 5.14951 235.744 4.50914C236.328 3.84862 237.061 3.33565 237.883 3.01247C238.906 2.62213 239.995 2.43567 241.09 2.46369L244.201 2.49362ZM246.146 9.39827C246.155 8.90804 245.996 8.42937 245.695 8.04129C245.507 7.83382 245.274 7.67327 245.013 7.5727C244.751 7.47214 244.47 7.43441 244.191 7.46258H241.08C240.801 7.43318 240.519 7.47035 240.258 7.57099C239.997 7.67163 239.763 7.83285 239.577 8.04129C239.294 8.43683 239.146 8.91267 239.156 9.39827V41.1327C239.146 41.6184 239.293 42.0943 239.577 42.4897C239.762 42.6994 239.996 42.8618 240.257 42.9633C240.519 43.0649 240.801 43.1026 241.08 43.0734H244.191C244.47 43.1014 244.752 43.0631 245.013 42.9616C245.275 42.8601 245.508 42.6984 245.695 42.4897C245.996 42.1018 246.155 41.623 246.146 41.1327V9.39827Z" fill="#377553"/>
<path d="M279 2.86273V7.85164H270.773V47.6482H265.762V7.83169H257.545V2.84277L279 2.86273Z" fill="#377553"/>
<path d="M72.3882 0V72.0599H53.0372L44.6846 0H72.3882Z" fill="#55AF7E"/>
<path d="M0 0V72.0599H27.5032L29.1316 58.52H43.1613L44.6945 72.0599H53.0572L44.6845 0H0ZM29.8932 51.3858L34.7034 7.26885H37.374L42.2794 51.3858H29.8932Z" fill="#377553"/>
<path d="M98.8089 61.0488H98.1675V60.8193H96.008V61.0488H95.5069C94.4959 61.0554 93.5284 61.4589 92.8144 62.1716C92.1005 62.8843 91.6978 63.8487 91.6939 64.8554V67.1004C91.6925 68.113 92.0949 69.0848 92.8127 69.8023C93.5305 70.5198 94.5049 70.9242 95.5219 70.9269H96.023V72.0494H98.1826V70.9269H98.8239C99.841 70.9242 100.815 70.5198 101.533 69.8023C102.251 69.0848 102.653 68.113 102.652 67.1004V64.8554C102.648 63.8436 102.241 62.8746 101.521 62.1611C100.8 61.4475 99.8251 61.0475 98.8089 61.0488ZM95.5219 68.9463C95.036 68.9436 94.5708 68.7496 94.2281 68.4065C93.8854 68.0634 93.6931 67.5992 93.6931 67.1153V64.8554C93.6924 64.6156 93.7392 64.378 93.8308 64.1562C93.9223 63.9344 94.0568 63.7328 94.2267 63.5628C94.3965 63.3927 94.5983 63.2577 94.8205 63.1653C95.0428 63.073 95.2811 63.0251 95.5219 63.0244H96.023V68.9263L95.5219 68.9463ZM100.638 67.1153C100.638 67.5992 100.445 68.0634 100.103 68.4065C99.76 68.7496 99.2949 68.9436 98.8089 68.9463H98.1675V63.0444H98.8089C99.0497 63.045 99.2881 63.0929 99.5103 63.1853C99.7326 63.2777 99.9344 63.4127 100.104 63.5827C100.274 63.7527 100.409 63.9544 100.5 64.1762C100.592 64.398 100.638 64.6355 100.638 64.8753V67.1153Z" fill="#5B5B5B"/>
<path d="M115.574 68.0736V60.8945H113.46V71.9998H115.299L119.443 65.0453V71.9998H121.557V60.8945H119.773L115.574 68.0736Z" fill="#5B5B5B"/>
<path d="M139.295 65.0852H135.587V60.8945H133.442V71.9998H135.587V67.1307H139.295V71.9998H141.429V60.8945H139.295V65.0852Z" fill="#5B5B5B"/>
<path d="M161.026 60.8945H158.49L155.474 64.721V60.8945H153.334V71.9998H155.474V67.0658L158.896 71.9998H161.406L157.147 65.8485L161.026 60.8945Z" fill="#5B5B5B"/>
<path d="M175.651 60.8946L171.362 72H173.562L174.464 69.71H178.973L179.84 72H182.04L177.766 60.8896L175.651 60.8946ZM175.246 67.6546L176.749 63.8431L178.252 67.6546H175.246Z" fill="#5B5B5B"/>
<path d="M193.053 71.9998H195.198V62.8701H198.906V71.9998H201.04V60.8945H193.053V71.9998Z" fill="#5B5B5B"/>
<path d="M215.04 68.0736V60.8945H212.925V71.9998H214.764L218.903 65.0453V71.9998H221.017V60.8945H219.239L215.04 68.0736Z" fill="#5B5B5B"/>
<path d="M231.815 62.9749H233.789V71.9998H235.934V62.9749H237.953V60.8945H231.815V62.9749Z" fill="#5B5B5B"/>
<path d="M252.148 60.8945L247.864 72.0049H250.064L250.966 69.7149H255.475L256.342 72.0049H258.547L254.273 60.8945H252.148ZM251.742 67.6545L253.246 63.843L254.749 67.6545H251.742Z" fill="#5B5B5B"/>
<path d="M274.731 60.8945H272.586L268.297 71.9998H270.542L273.669 63.833L276.745 71.9998H279.005L274.731 60.8945Z" fill="#5B5B5B"/>
</g>
<defs>
<clipPath id="clip0">
<rect width="279" height="72" fill="white"/>
</clipPath>
</defs>
</svg>

<svg width="279" height="72" fill="none" xmlns="http://www.w3.org/2000/svg">
  <g clip-path="url(#clip0)">
    <path d="M106.605 39.068h-8.898l-1.003 8.58h-5.01L96.82 2.864h10.627l5.186 44.786h-5.056l-.972-8.581zm-.501-4.515l-3.126-26.72h-1.689l-3.046 26.715 7.861.005zM130 17.062a8.397 8.397 0 013.207.548 5.598 5.598 0 012.139 1.497c.55.64.96 1.388 1.203 2.195.262.87.392 1.772.385 2.68v16.762a8.293 8.293 0 01-.551 3.193 5.574 5.574 0 01-1.503 2.13 6.057 6.057 0 01-2.205 1.193 9.11 9.11 0 01-2.69.389h-9.771V2.863h15.423v4.99h-10.432v9.209H130zm1.944 6.884a2.253 2.253 0 00-.421-1.357 1.764 1.764 0 00-1.503-.578h-4.795V42.68h4.795c.498.02.989-.128 1.393-.42a1.795 1.795 0 00.551-1.496l-.02-16.818zM157.739 28.481h5.01v12.652a9.006 9.006 0 01-.386 2.68 6.036 6.036 0 01-1.197 2.194 5.597 5.597 0 01-2.14 1.497 8.415 8.415 0 01-3.207.549h-3.757a8.415 8.415 0 01-3.207-.549 5.57 5.57 0 01-2.14-1.497 6 6 0 01-1.197-2.195 9.04 9.04 0 01-.391-2.679V9.383a9.04 9.04 0 01.391-2.678c.23-.812.63-1.567 1.172-2.215a5.584 5.584 0 012.14-1.497 8.397 8.397 0 013.206-.549h3.758a8.394 8.394 0 013.207.549 5.605 5.605 0 012.14 1.497c.548.64.956 1.388 1.197 2.195.263.869.393 1.772.386 2.679v8.665h-5.011V9.384c.01-.49-.15-.97-.45-1.357a1.778 1.778 0 00-1.504-.579h-3.758a1.774 1.774 0 00-1.503.579 2.145 2.145 0 00-.456 1.357v31.75c-.009.49.152.97.456 1.356a1.77 1.77 0 001.503.584h3.758a1.779 1.779 0 001.504-.584c.301-.388.46-.867.45-1.357l.026-12.652zM181.719 2.494a8.399 8.399 0 013.207.55 5.601 5.601 0 012.14 1.496 6 6 0 011.197 2.195c.265.868.397 1.771.391 2.679v31.72a8.975 8.975 0 01-.391 2.678 6 6 0 01-1.197 2.196 5.595 5.595 0 01-2.14 1.496 8.418 8.418 0 01-3.207.55h-3.843a8.421 8.421 0 01-3.207-.55 5.574 5.574 0 01-2.139-1.496 6.016 6.016 0 01-1.198-2.196 9.007 9.007 0 01-.39-2.679V9.384a9.04 9.04 0 01.39-2.68 6.006 6.006 0 011.218-2.214 5.58 5.58 0 012.139-1.497 8.405 8.405 0 013.187-.499h3.843zm0 40.59a1.78 1.78 0 001.504-.584c.301-.388.46-.866.45-1.357V9.384c.01-.49-.15-.969-.45-1.357a1.787 1.787 0 00-1.504-.579h-3.843a1.766 1.766 0 00-1.503.579 2.245 2.245 0 00-.421 1.357v31.75c-.011.485.137.961.421 1.356a1.755 1.755 0 001.503.584l3.843.01zM214.709 2.863V47.65h-5.01V7.832h-5.683l-1.503 33.62c-.087 2.066-.529 3.614-1.328 4.645-.798 1.031-2.234 1.547-4.309 1.547h-2.725v-4.99h2.074c.35.045.705-.034 1.002-.224.199-.294.301-.643.291-.997l1.703-38.57h15.488zM244.201 2.494a8.398 8.398 0 013.207.548c.81.312 1.535.808 2.12 1.447a6 6 0 011.197 2.195c.265.869.397 1.772.391 2.68v31.769a8.975 8.975 0 01-.391 2.679 6 6 0 01-1.197 2.195 5.595 5.595 0 01-2.14 1.497 8.418 8.418 0 01-3.207.548h-3.111a8.406 8.406 0 01-3.207-.548 5.578 5.578 0 01-2.14-1.497 6.057 6.057 0 01-1.202-2.195 9.006 9.006 0 01-.386-2.68V22.096h-5.361v25.553h-5.011V2.863h5.011v14.263h5.381V9.383a9.07 9.07 0 01.386-2.679 6.044 6.044 0 011.203-2.195 5.58 5.58 0 012.139-1.497 8.392 8.392 0 013.207-.548l3.111.03zm1.945 6.904a2.15 2.15 0 00-.451-1.357 1.787 1.787 0 00-1.504-.578h-3.111a1.77 1.77 0 00-1.503.578 2.253 2.253 0 00-.421 1.357v31.735c-.01.485.137.961.421 1.357a1.756 1.756 0 001.503.583h3.111a1.779 1.779 0 001.504-.583c.301-.388.46-.867.451-1.357V9.398zM279 2.863v4.989h-8.227v39.796h-5.011V7.832h-8.217v-4.99l21.455.02z" fill="#377553"/>
    <path d="M72.388 0v72.06h-19.35L44.684 0h27.703z" fill="#55AF7E"/>
    <path d="M0 0v72.06h27.503l1.629-13.54h14.03l1.532 13.54h8.363L44.684 0H0zm29.893 51.386l4.81-44.117h2.671l4.905 44.117H29.893z" fill="#377553"/>
    <path d="M98.809 61.049h-.641v-.23h-2.16v.23h-.501a3.847 3.847 0 00-2.693 1.123 3.813 3.813 0 00-1.12 2.683V67.1a3.813 3.813 0 001.119 2.702 3.847 3.847 0 002.709 1.125h.501v1.122h2.16v-1.122h.64a3.847 3.847 0 002.71-1.125 3.814 3.814 0 001.119-2.702v-2.245a3.815 3.815 0 00-1.131-2.694 3.848 3.848 0 00-2.712-1.112zm-3.287 7.897a1.843 1.843 0 01-1.294-.54 1.827 1.827 0 01-.535-1.29v-2.26a1.818 1.818 0 01.534-1.293 1.834 1.834 0 011.295-.539h.501v5.902l-.501.02zm5.116-1.83c0 .483-.193.947-.535 1.29a1.844 1.844 0 01-1.294.54h-.641v-5.902h.64a1.839 1.839 0 011.692 1.132c.092.222.138.46.138.7v2.24zM115.574 68.074v-7.18h-2.114V72h1.839l4.144-6.955V72h2.114V60.895h-1.784l-4.199 7.179zM139.295 65.085h-3.708v-4.19h-2.145V72h2.145v-4.87h3.708V72h2.134V60.895h-2.134v4.19zM161.026 60.895h-2.536l-3.016 3.826v-3.827h-2.14V72h2.14v-4.934L158.896 72h2.51l-4.259-6.151 3.879-4.955zM175.651 60.895L171.362 72h2.2l.902-2.29h4.509l.867 2.29h2.2l-4.274-11.11-2.115.005zm-.405 6.76l1.503-3.812 1.503 3.812h-3.006zM193.053 72h2.145v-9.13h3.708V72h2.134V60.895h-7.987V72zM215.04 68.074v-7.18h-2.115V72h1.839l4.139-6.955V72h2.114V60.895h-1.778l-4.199 7.179zM231.815 62.975h1.974V72h2.145v-9.025h2.019v-2.08h-6.138v2.08zM252.148 60.895l-4.284 11.11h2.2l.902-2.29h4.509l.867 2.29h2.205l-4.274-11.11h-2.125zm-.406 6.76l1.504-3.812 1.503 3.811h-3.007zM274.731 60.895h-2.145L268.297 72h2.245l3.127-8.167L276.745 72h2.26l-4.274-11.105z" fill="#5B5B5B"/>
  </g>
  <defs>
    <clipPath id="clip0">
      <path fill="#fff" d="M0 0h279v72H0z"/>
    </clipPath>
  </defs>
</svg>
